public/freeicon.svg

<svg width="24" height="24" viewBox="0 0 24 24" fill="none" xmlns="http://www.w3.org/2000/svg">
<path d="M8.02478 8.80164C7.86565 8.80164 7.71304 8.86485 7.60052 8.97737C7.488 9.08989 7.42478 9.24251 7.42478 9.40164V14.6496C7.42478 14.8088 7.488 14.9614 7.60052 15.0739C7.71304 15.1864 7.86565 15.2496 8.02478 15.2496C8.18391 15.2496 8.33653 15.1864 8.44905 15.0739C8.56157 14.9614 8.62478 14.8088 8.62478 14.6496V13.0776C8.62478 12.9896 8.72958 12.9448 8.79278 13.0056L10.9176 15C10.9751 15.054 11.0426 15.0961 11.1163 15.1239C11.1901 15.1518 11.2686 15.1648 11.3473 15.1623C11.4261 15.1599 11.5036 15.1419 11.5755 15.1094C11.6473 15.077 11.712 15.0307 11.766 14.9732C11.8199 14.9158 11.862 14.8482 11.8899 14.7745C11.9177 14.7008 11.9308 14.6223 11.9283 14.5435C11.9258 14.4647 11.9078 14.3872 11.8754 14.3154C11.8429 14.2435 11.7967 14.1788 11.7392 14.1248L10.3104 12.7832C10.2488 12.7256 10.2824 12.6192 10.3648 12.5992C10.8216 12.4875 11.2217 12.2125 11.4898 11.8261C11.7579 11.4397 11.8753 10.9686 11.82 10.5015C11.7648 10.0345 11.5405 9.60385 11.1897 9.29072C10.8388 8.97759 10.3855 8.80363 9.91518 8.80164H8.02398H8.02478ZM8.72478 11.452C8.69826 11.452 8.67283 11.4415 8.65407 11.4227C8.63532 11.404 8.62478 11.3786 8.62478 11.352V10.1016C8.62478 10.0464 8.66958 10.0016 8.72478 10.0016H9.91518C10.0124 9.9984 10.1094 10.0148 10.2002 10.0498C10.291 10.0848 10.3738 10.1377 10.4438 10.2053C10.5137 10.273 10.5693 10.354 10.6073 10.4436C10.6453 10.5332 10.6649 10.6295 10.6649 10.7268C10.6649 10.8242 10.6453 10.9205 10.6073 11.0101C10.5693 11.0997 10.5137 11.1807 10.4438 11.2484C10.3738 11.316 10.291 11.3689 10.2002 11.4039C10.1094 11.4389 10.0124 11.4553 9.91518 11.452H8.72478ZM2.49438 9.46964C2.49438 9.31051 2.5576 9.15789 2.67012 9.04537C2.78264 8.93285 2.93525 8.86964 3.09438 8.86964H6.00078C6.15991 8.86964 6.31253 8.93285 6.42505 9.04537C6.53757 9.15789 6.60078 9.31051 6.60078 9.46964C6.60078 9.62877 6.53757 9.78138 6.42505 9.8939C6.31253 10.0064 6.15991 10.0696 6.00078 10.0696H3.79438C3.76786 10.0696 3.74243 10.0802 3.72367 10.0989C3.70492 10.1177 3.69438 10.1431 3.69438 10.1696V11.4312C3.69438 11.4872 3.73918 11.5312 3.79438 11.5312H5.96158C6.12071 11.5312 6.27333 11.5944 6.38585 11.707C6.49837 11.8195 6.56158 11.9721 6.56158 12.1312C6.56158 12.2904 6.49837 12.443 6.38585 12.5555C6.27333 12.668 6.12071 12.7312 5.96158 12.7312H3.79438C3.76786 12.7312 3.74243 12.7418 3.72367 12.7605C3.70492 12.7793 3.69438 12.8047 3.69438 12.8312V14.6128C3.69438 14.772 3.63117 14.9246 3.51865 15.0371C3.40613 15.1496 3.25351 15.2128 3.09438 15.2128C2.93525 15.2128 2.78264 15.1496 2.67012 15.0371C2.5576 14.9246 2.49438 14.772 2.49438 14.6128V9.46884V9.46964ZM13.2544 8.86964C13.0953 8.86964 12.9426 8.93285 12.8301 9.04537C12.7176 9.15789 12.6544 9.31051 12.6544 9.46964V14.6136C12.6544 14.9448 12.9224 15.2136 13.2544 15.2136H16.16C16.3191 15.2136 16.4717 15.1504 16.5842 15.0379C16.6968 14.9254 16.76 14.7728 16.76 14.6136C16.76 14.4545 16.6968 14.3019 16.5842 14.1894C16.4717 14.0768 16.3191 14.0136 16.16 14.0136H13.9544C13.9412 14.0136 13.9281 14.011 13.9159 14.0059C13.9037 14.0009 13.8927 13.9934 13.8834 13.9841C13.8741 13.9747 13.8667 13.9636 13.8618 13.9513C13.8568 13.9391 13.8543 13.926 13.8544 13.9128V12.832C13.8544 12.7768 13.8992 12.732 13.9544 12.732H16.1208C16.2799 12.732 16.4325 12.6688 16.545 12.5563C16.6576 12.4438 16.7208 12.2912 16.7208 12.132C16.7208 11.9729 16.6576 11.8203 16.545 11.7078C16.4325 11.5953 16.2799 11.532 16.1208 11.532H13.9544C13.9279 11.532 13.9024 11.5215 13.8837 11.5027C13.8649 11.484 13.8544 11.4586 13.8544 11.432V10.1704C13.8544 10.1144 13.8992 10.0704 13.9544 10.0704H16.16C16.3191 10.0704 16.4717 10.0072 16.5842 9.8947C16.6968 9.78218 16.76 9.62957 16.76 9.47044C16.76 9.31131 16.6968 9.15869 16.5842 9.04617C16.4717 8.93365 16.3191 8.87044 16.16 8.87044H13.2544V8.86964ZM18.1976 8.86964C18.0385 8.86964 17.8858 8.93285 17.7733 9.04537C17.6608 9.15789 17.5976 9.31051 17.5976 9.46964V14.6136C17.5976 14.9448 17.8664 15.2136 18.1976 15.2136H21.104C21.2631 15.2136 21.4157 15.1504 21.5282 15.0379C21.6408 14.9254 21.704 14.7728 21.704 14.6136C21.704 14.4545 21.6408 14.3019 21.5282 14.1894C21.4157 14.0768 21.2631 14.0136 21.104 14.0136H18.8976C18.8844 14.0136 18.8713 14.011 18.8591 14.0059C18.8469 14.0009 18.8359 13.9934 18.8266 13.9841C18.8173 13.9747 18.8099 13.9636 18.805 13.9513C18.8 13.9391 18.7975 13.926 18.7976 13.9128V12.832C18.7976 12.7768 18.8424 12.732 18.8976 12.732H21.0648C21.2239 12.732 21.3765 12.6688 21.489 12.5563C21.6016 12.4438 21.6648 12.2912 21.6648 12.132C21.6648 11.9729 21.6016 11.8203 21.489 11.7078C21.3765 11.5953 21.2239 11.532 21.0648 11.532H18.8976C18.8711 11.532 18.8456 11.5215 18.8269 11.5027C18.8081 11.484 18.7976 11.4586 18.7976 11.432V10.1704C18.7976 10.1144 18.8424 10.0704 18.8976 10.0704H21.104C21.2631 10.0704 21.4157 10.0072 21.5282 9.8947C21.6408 9.78218 21.704 9.62957 21.704 9.47044C21.704 9.31131 21.6408 9.15869 21.5282 9.04617C21.4157 8.93365 21.2631 8.87044 21.104 8.87044H18.1976V8.86964Z" fill="url(#paint0_linear_250_190)"/>
<path d="M4 0C3.47471 0 2.95457 0.103463 2.46927 0.304482C1.98396 0.505501 1.54301 0.800139 1.17157 1.17157C0.421427 1.92172 0 2.93913 0 4V20C0 21.0609 0.421427 22.0783 1.17157 22.8284C1.54301 23.1999 1.98396 23.4945 2.46927 23.6955C2.95457 23.8965 3.47471 24 4 24H20C21.0609 24 22.0783 23.5786 22.8284 22.8284C23.5786 22.0783 24 21.0609 24 20V4C24 3.47471 23.8965 2.95457 23.6955 2.46927C23.4945 1.98396 23.1999 1.54301 22.8284 1.17157C22.457 0.800139 22.016 0.505501 21.5307 0.304482C21.0454 0.103463 20.5253 0 20 0H4ZM1.6 4C1.6 3.36348 1.85286 2.75303 2.30294 2.30294C2.75303 1.85286 3.36348 1.6 4 1.6H20C20.6365 1.6 21.247 1.85286 21.6971 2.30294C22.1471 2.75303 22.4 3.36348 22.4 4V20C22.4 20.6365 22.1471 21.247 21.6971 21.6971C21.247 22.1471 20.6365 22.4 20 22.4H4C3.36348 22.4 2.75303 22.1471 2.30294 21.6971C1.85286 21.247 1.6 20.6365 1.6 20V4Z" fill="url(#paint1_linear_250_190)"/>
<defs>
<linearGradient id="paint0_linear_250_190" x1="-17.5156" y1="4.6373" x2="-4.15671" y2="33.018" gradientUnits="userSpaceOnUse">
<stop stop-color="#DED8FF"/>
<stop offset="1" stop-color="#7B48ED"/>
</linearGradient>
<linearGradient id="paint1_linear_250_190" x1="-25" y1="-15.5" x2="36" y2="28" gradientUnits="userSpaceOnUse">
<stop stop-color="#DED8FF"/>
<stop offset="1" stop-color="#7B48ED"/>
</linearGradient>
</defs>
</svg>

<svg xmlns="http://www.w3.org/2000/svg" width="24" height="24" fill="none" xmlns:v="https://vecta.io/nano"><path d="M8.025 8.802a.6.6 0 0 0-.6.6v5.248a.6.6 0 0 0 .6.6.6.6 0 0 0 .6-.6v-1.572c0-.088.105-.133.168-.072L10.918 15a.6.6 0 0 0 .43.162.6.6 0 0 0 .419-.189.6.6 0 0 0 .162-.43.6.6 0 0 0-.189-.419l-1.429-1.342c-.062-.058-.028-.164.054-.184.457-.112.857-.387 1.125-.773s.385-.857.33-1.325-.28-.898-.63-1.211-.804-.487-1.275-.489H8.024h.001zm.7 2.65a.1.1 0 0 1-.1-.1v-1.25a.1.1 0 0 1 .1-.1h1.19c.097-.003.194.013.285.048s.174.088.244.155.126.149.164.238.058.186.058.283-.02.194-.058.283-.094.171-.164.238-.153.12-.244.155-.188.051-.285.048h-1.19zM2.494 9.47a.6.6 0 0 1 .6-.6h2.906a.6.6 0 0 1 .6.6.6.6 0 0 1-.6.6H3.794a.1.1 0 0 0-.1.1v1.262a.1.1 0 0 0 .1.1h2.167a.6.6 0 0 1 .6.6.6.6 0 0 1-.6.6H3.794a.1.1 0 0 0-.1.1v1.782a.6.6 0 0 1-.6.6.6.6 0 0 1-.6-.6V9.469v.001zm10.76-.6a.6.6 0 0 0-.6.6v5.144a.6.6 0 0 0 .6.6h2.906a.6.6 0 0 0 .6-.6.6.6 0 0 0-.6-.6h-2.206a.1.1 0 0 1-.038-.008c-.012-.005-.023-.013-.033-.022s-.017-.021-.022-.033a.1.1 0 0 1-.007-.038v-1.081a.1.1 0 0 1 .1-.1h2.166a.6.6 0 0 0 .6-.6.6.6 0 0 0-.6-.6h-2.166a.1.1 0 0 1-.1-.1V10.17a.1.1 0 0 1 .1-.1h2.206a.6.6 0 0 0 .6-.6.6.6 0 0 0-.6-.6h-2.906 0zm4.943 0a.6.6 0 0 0-.6.6v5.144a.6.6 0 0 0 .6.6h2.906a.6.6 0 0 0 .6-.6.6.6 0 0 0-.6-.6h-2.206a.1.1 0 0 1-.038-.008c-.012-.005-.023-.013-.033-.022s-.017-.021-.022-.033a.1.1 0 0 1-.007-.038v-1.081a.1.1 0 0 1 .1-.1h2.167a.6.6 0 0 0 .6-.6.6.6 0 0 0-.6-.6h-2.167a.1.1 0 0 1-.1-.1V10.17a.1.1 0 0 1 .1-.1h2.206a.6.6 0 0 0 .6-.6.6.6 0 0 0-.6-.6h-2.906 0z" fill="url(#A)"/><path d="M4 0a4 4 0 0 0-1.531.304A4 4 0 0 0 0 4v16a4 4 0 0 0 2.469 3.695A4 4 0 0 0 4 24h16a4 4 0 0 0 4-4V4a4 4 0 0 0-1.172-2.828A4 4 0 0 0 20 0H4zM1.6 4A2.4 2.4 0 0 1 4 1.6h16A2.4 2.4 0 0 1 22.4 4v16a2.4 2.4 0 0 1-2.4 2.4H4A2.4 2.4 0 0 1 1.6 20V4z" fill="url(#B)"/><defs><linearGradient id="A" x1="-17.516" y1="4.637" x2="-4.157" y2="33.018" gradientUnits="userSpaceOnUse"><stop stop-color="#ded8ff"/><stop offset="1" stop-color="#7b48ed"/></linearGradient><linearGradient id="B" x1="-25" y1="-15.5" x2="36" y2="28" gradientUnits="userSpaceOnUse"><stop stop-color="#ded8ff"/><stop offset="1" stop-color="#7b48ed"/></linearGradient></defs></svg>
